X: 4212
T: Bluebells In The Glen
R: reel
M: 4/4
K: Gdorian
DGRG2 GdcA|GcAG FADE|FCCB, JA,3C|FDCB, A,CFC|DGRG2 GdcA|GcAG FADE|
FCCB, A,CFG|1 FDCD G3F:|2 FDCD G2Ac|:cdBA JG3A|JF3G Ac~c2|dcBA GFDE|
FCCB, JA,2A,C|DGGB AFFA|DGGA JF3G|FDCB, A,CFG|1 FDCD JG2Ac:|2 FDCD JG3F||

